X: 181
T:Maraichine
M:6/8
L:1/8
Q:110
C:trad
O:France
A:Bretagne
K:G
|:d2Bd2B|dcB ABc|d2Bd2B|d3A3:|
|:G2BA2B|cBA B2 G|G2 BA2B|cBA G3:||
W:
W: From "Falaleiro" http://home.t-online.de/home/pheld/homepage.htm

